X:868
T:Hedigan's fancy
R:Slip Jig
S:Richard Darsie
Z:Transcription, chords:Mike Long
M:9/8
L:1/8
K:D
"D"d2A "G"BGE "D"AFD|"D"fed "G"BGE "A"GFE|"D"d2A "G"BGE "D"AFD|"G"BAB E2F "A"GFE:|
|:"D"d2A FDF "A"GEA|"D"d2A FDF "A"GFE|"D"d2A FDF "A"GEA|"G"BAB E2F "A"GFE:|
|:"D"dcd fed "A"ecA|"D"def agf "A"gfe|"D"dcd fed "A"ecA|"G"dAG FED "A"G2E:|
|:"D"def a2f agf|"D"def agf "A"gfe|"D"def a2f agf|"G"bgf e2f "A"gfe:|
|:"D"dfe dAF "A"GFE|"D"dfe dAF "G"BGE|"D"dfe dAF "A"GFE|"G"BAB E2F "A"GFE:|
|:"D"DFA fed "A"FGE|"D"DFA dAF "A"E2A|"D"DFA fed "A"FED|"G"BAB E2F "A"GFE:|
